X:134
T: ES WAREN ZWEI GESPIELEN
N: E0070
O: Europa, Mitteleuropa, Deutschland, Schlesien, Breslau; Liegnitz
R: erzaehlendes Volks - Lied, Sage, Liebe
M: 3/4
L: 1/16
K: F
C2 | F2A2c4G4 | BA3G4z2
c2 | c2e2f4d4 | fe3c4z2
c2 | c2e2f4g4 | f2d2c4z2
A2 | B2d2c4G4 | BA3F4z2
c2 | c2e2f4g4 | f2d2c4z2
A2 | B2d2c4G4 | BA3F4z2

